X:1
T:Title
%%score { ( 1 4 5 ) | ( 2 3 ) }
L:1/8
M:6/8
K:Eb
V:1 treble nm="Grand Piano"
V:4 treble 
V:5 treble 
V:2 bass 
V:3 bass 
V:1
 z3 z2[Q:1/4=87] [EG]/[FA]/ | [GB]2 [Ac] [GB]2 [EG] | [EG]2 [DF] [DF]2 [DF] | %3
 [DF][EG][FA] [Ac]2 [GB] | [EG]3- [EG]2 [EG]/[FA]/ | [GB]2 [Ac] [GB]2 [EG] | %6
 [EG]2 [DF] [DF]2 [DF] | [DF]G[B,FA] [B,EG]2 [A,DF] | [G,E]6 | [GB]6 | [EG]6 | [DF]6 | [EG]6 | %13
 [Ac]6 | [GB]3 z3 | .[DF]6 |[M:5/8] E-E- E3 |] %17
V:2
 z3 z2 [E,B,] | [E,E]2 [E,E] [E,E]2 [E,B,] | [B,,B,]2 [B,,B,] [B,,B,]2 [B,,B,] | %3
 [B,,B,]2 [B,,B,] [B,,B,]2 [B,,B,] | [E,B,]3- [E,B,]2 [E,B,] | [E,E]2 [E,E] [E,E]2 [E,B,] | %6
 [B,,B,]2 [B,,B,] [B,,B,]2 [B,,B,] | .[B,,B,]3 z3 | E,6 | E,>E,E, z z/[K:treble] _G/=G | %10
 E,>E,E, .E,3 | B,,>B,,B,, z z/[K:treble] E/F | E,>E,E, .E,3 | A,>A,A, z z/[K:treble] B/A, | %14
 E,>E,E, .E,3 | B,,>B,,B,, B,,[B,,G,][B,,A,B,] |[M:5/8] [E,G,B,]-[E,G,B,]- [E,G,B,]3 |] %17
V:3
 x6 | x6 | x6 | x6 | x6 | x6 | x6 | z EB,, B,,2 B,, | x6 | z3 E,3[K:treble] | x6 | %11
 z3 B,,3[K:treble] | x6 | z3 .A,3[K:treble] | x6 | x6 |[M:5/8] x5 |] %17
V:4
 x6 | x6 | x6 | x6 | x6 | x6 | x6 | x6 | x6 | E>EE z z/ =A/B | B,>B,B, .B,3 | B,>B,B, z z/ G/A | %12
 B,>B,B, .B,3 | E>EE z z/ d/[Ece] | E>EE .[B,EG]3 | A,>A,A, A,EF |[M:5/8] x5 |] %17
V:5
 x6 | x6 | x6 | x6 | x6 | x6 | x6 | x6 | x6 | z3 E3 | x6 | z3 B,3 | x6 | z3 .E3 | x6 | x6 | %16
[M:5/8] x5 |] %17

